X:1
T:planxty burke
T:Turlough O'Carolan
T:arranged for guitar by Sandy Stehling
T:Planxty Burke
C:turlough o'carolan
%%score ( 1 2 )
L:1/8
Q:1/4=96
M:6/8
K:G
V:1 treble nm="Track 1"
V:2 treble 
V:1
|: ABc/d/ e2 d | cde dBG | GBG gBG | GBG dBG | A/B/cA ecA | AcA acA | g2 g gab |1 g3 e3 :| %8
 g3"^2" e2 g/a/ |: bag agf | gfe def | gfe agf | gfe dBG | A/B/cA ecA | AcA ecA | g2 g gab |1 %16
 g3 e2 g/a/ :| g3"^2" e3 |: e/f/gg ga/g/f | [Beg]a/g/f/e/ dBG | a2 a ab/a/g | aef g2 a | bag fed | %23
 e/f/ge dBG | g2 d e/f/ge | c3 A3 :| %26
V:2
|: A,2 E C B,2 | [A,E]3 B,3 | G,3 D3 | G,3 B,3 | C E2 A,3 | C3 A,3 | E,B,E E,3 |1 %7
 B,DG [E,B,EGB]3 :| B,DG [E,EGB]3 |: G3 D3 | E3 F3 | E3 D3 | E3 B,3 | C3 A,3 | C3 A,3 | %15
 E,B,E E,3 |1 B,A,F, E,3 :| B,A,G, E,3 |: [E,EGB]3 [E,EGB]3 | E,3 B,3 | A, E2 C3 | A,3 E F2 | %22
 G3 D3 | E3 B,3 | G, D2 [E,B,E]3 | [A,E]3 [A,CE]3 :| %26

